svgs/mt_manager.svg

<svg width="24" height="24" viewBox="0 0 24 24" fill="none" xmlns="http://www.w3.org/2000/svg">
<path fill-rule="evenodd" clip-rule="evenodd" d="M10 4H4C2.9 4 2.01 4.9 2.01 6L2 18C2 19.1 2.9 20 4 20H20C21.1 20 22 19.1 22 18V8C22 6.9 21.1 6 20 6H12L10 4ZM6 10H7.11429V10.0265L7.15093 10L8.47621 11.8248L9.80149 10L9.83813 10.0265V10H10.9524V17.1191C10.9524 17.4268 10.703 17.6762 10.3953 17.6762C10.0876 17.6762 9.83813 17.4268 9.83813 17.1191V11.8457L8.96867 13.0429C8.97048 13.0601 8.9714 13.0776 8.9714 13.0953C8.9714 13.3688 8.74968 13.5905 8.47616 13.5905C8.20265 13.5905 7.98092 13.3688 7.98092 13.0953C7.98092 13.0775 7.98186 13.06 7.98367 13.0428L7.11429 11.8457V17.1191C7.11429 17.4268 6.86485 17.6762 6.55714 17.6762C6.24944 17.6762 6 17.4268 6 17.1191V10ZM14.6048 11.8571C14.297 11.8571 14.0476 11.6077 14.0476 11.3V10H19V11.3C19 11.6077 18.7506 11.8571 18.4429 11.8571C18.1351 11.8571 17.8857 11.6077 17.8857 11.3V10.9905H17.019V17.6762H15.9048V10.9905H15.1619V11.3C15.1619 11.6077 14.9125 11.8571 14.6048 11.8571Z" fill="#FFF1C0"/>
</svg>

<svg xmlns="http://www.w3.org/2000/svg" viewBox="0 0 24 24"><path d="M10 4H4c-1.1 0-1.99.9-1.99 2L2 18c0 1.1.9 2 2 2h16c1.1 0 2-.9 2-2V8c0-1.1-.9-2-2-2h-8zm-4 6h1.114v.027L7.151 10l1.325 1.825L9.801 10l.037.027V10h1.114v7.12a.557.557 0 1 1-1.114 0v-5.274l-.87 1.197a.495.495 0 1 1-.985 0l-.869-1.197v5.273a.557.557 0 0 1-1.114 0zm8.605 1.857a.557.557 0 0 1-.557-.557V10H19v1.3a.557.557 0 1 1-1.114 0v-.31h-.867v6.686h-1.114v-6.685h-.743v.309c0 .308-.25.557-.557.557"/></svg>
